!!!COM: Schiørring, Niels
!!!CDT: 1743-1798
!!!OPR@@DA: Choral-Bog
!!!ONM: 10
!!!OTL@@DA: Chriſtus kom ſelv til Jordans Flod
**kern	**fb	**kern	**kern	**kern	**kern	**kern	**kern	**kern
*part6	*part6	*part6	*part5	*part5	*part4	*part3	*part2	*part1
*staff8	*	*staff7	*staff6	*staff5	*staff4	*staff3	*staff2	*staff1
*clefF4	*	*clefC1	*clefF4	*clefC1	*clefF4	*clefC4	*clefC3	*clefC1
*mclefF4	*	*mclefG2	*mclefF4	*mclefG2	*mclefF4	*mclefGv2	*mclefG2	*mclefG2
*k[]	*	*k[]	*k[]	*k[]	*k[]	*k[]	*k[]	*k[]
*M4/4	*	*M4/4	*M4/4	*M4/4	*M4/4	*M4/4	*M4/4	*M4/4
*met(c)	*	*met(c)	*met(c)	*met(c)	*met(c)	*met(c)	*met(c)	*met(c)
*MM180	*	*MM180	*MM180	*MM180	*MM180	*MM180	*MM180	*MM180
*	*above	*	*	*	*	*	*	*
*	*	*	*^	*^	*	*	*	*
=1	=1	=1	=1	=1	=1	=1	=1	=1	=1	=1
2D	.	2d	2F	2D	2d	2A	2D	2F	2A	2d
=2	=2	=2	=2	=2	=2	=2	=2	=2	=2	=2
2D	.	2f	2A	2D	2f	2d	2D	2A	2d	2f
2C	.	2g	2c	2C	2g	2e	2C	2c	2e	2g
=3	=3	=3	=3	=3	=3	=3	=3	=3	=3	=3
2F	.	2a	2c	2F	2a	2f	2F	2A	2f	2a
2C	.	2g	2c	2C	2g	2e	2C	2c	2e	2g
=4	=4	=4	=4	=4	=4	=4	=4	=4	=4	=4
2AA	.	2cc	4ryy	2AA	4c	2e	2AA	(4c	2e	2cc
.	.	.	4A	.	4ryy	.	.	4A)	.	.
*	*	*	*	*	*	*^	*	*	*	*
2E	#	2b	2G#X	2E	2b	4e	2e/	2E	2G#X	(4e	2b
.	.	.	.	.	.	4d	.	.	.	4d)	.
=5	=5	=5	=5	=5	=5	=5	=5	=5	=5	=5	=5
2AA	.	2a	2A	2AA	2a	2c	2e/	2AA	2A	2c	2a
*	*	*	*	*	*	*v	*v	*	*	*	*
2F	.	2a	[2A	2F	2a	2c	2F	[2A	2c	2a
=6	=6	=6	=6	=6	=6	=6	=6	=6	=6	=6
2E	6 4	2cc	2A]	2E	2cc	1e	2E	2A]	2e	2cc
2D	#4|	2b	2G#X	2D	2b	.	2D	2G#X	2e	2b
=7	=7	=7	=7	=7	=7	=7	=7	=7	=7	=7
2C	6	2a	1A	2C	2a	[1e	2C	2A	2e	2a
2C#X	5	2g	.	2C#X	2gni	.	2C#X	2A	[2e	2g
=8	=8	=8	=8	=8	=8	=8	=8	=8	=8	=8
2D	9	2f	2.A	2D	2f	4e]	(2D	(2.A	(4e]	(2f
.	8	.	.	.	.	2d	.	.	2d	.
2AA	4	2e	.	2AA	2e	.	2AA)	.	.	2e)
.	#	.	4G	.	.	4c#X	.	4G)	4c#X)	.
=9	=9	=9	=9	=9	=9	=9	=9	=9	=9	=9
2D	.	2d	2F	2D	2d	2A	2D	2F	2d	2d
=10:|!	=10:|!	=10:|!	=10:|!	=10:|!	=10:|!	=10:|!	=10:|!	=10:|!	=10:|!	=10:|!
2D	.	2d	2F	2D	2d	2A	2D	2F	2A	2d
=11	=11	=11	=11	=11	=11	=11	=11	=11	=11	=11
2BB	6	2g	2D	2BB	2g	2B	2BB	2D	2B	2g
2GG	.	2g	2ryy	2GG	2B	2d	2GG	2B	2d	2g
=12	=12	=12	=12	=12	=12	=12	=12	=12	=12	=12
2C	.	2e	2G	2C	2e	1c	2C	2G	2c	2e
4F	.	2a	2A	4F	2a	.	(4F	2A	2c	2a
4E	.	.	.	4E	.	.	4E)	.	.	.
=13	=13	=13	=13	=13	=13	=13	=13	=13	=13	=13
2D	6 5	2a	1B	2D	2a	2f	2D	2B	2f	2a
2E	#	2g#X	.	2E	2g#X	2e	2E	2B	2e	2g#X
=14	=14	=14	=14	=14	=14	=14	=14	=14	=14	=14
*	*	*	*	*	*	*^	*	*	*	*
2AA	.	2a	2A	2AA	2a	2c	2e/	2AA	2c	2e	2a
*	*	*	*	*	*	*v	*v	*	*	*	*
4A	.	2a	[2c	4A	2a	2e	(4A	[2c	2e	2a
4Gni	.	.	.	4Gni	.	.	4G)	.	.	.
=15	=15	=15	=15	=15	=15	=15	=15	=15	=15	=15
2F#X	5	2dd	2c]	2F#X	2dd	2a	2F#X	2c]	2a	2dd
2G	8	2dd	[2B	2G	2dd	4g	2G	[2B	(4g	2dd
.	n7	.	.	.	.	4fni	.	.	4f)	.
=16	=16	=16	=16	=16	=16	=16	=16	=16	=16	=16
2C	7	2ee	2B]	2C	2ee	1e	2C	2B]	[2e	2ee
[2Fni	7 5	2cc	2A	[2Fni	2cc	.	[2Fni	2A	2e]	2cc
=17	=17	=17	=17	=17	=17	=17	=17	=17	=17	=17
4F]	6	(4dd	2.A	4F]	4dd	4d	(4F]	(2.A	(4d	(4dd
4E	6 4	4cc)	.	4E	4cc	4e	4E	.	4e	4cc
4D	6 5	2b	.	4D	2b	4f	4D	.	4f	2b)
4E	#	.	4G#X	4E	.	4e	4E)	4G#X)	4e)	.
=18	=18	=18	=18	=18	=18	=18	=18	=18	=18	=18
*	*	*	*	*	*	*^	*	*	*	*
2AA	.	2a	2A	2AA	2a	2c	2e/	2AA	2c	2e	2a
*	*	*	*	*	*	*v	*v	*	*	*	*
4C	6	2a	4ryy	4C	2e	2a	(4C	2e	2a	2a
4BB	.	.	4ryy	4BB	.	.	4BB)	.	.	.
=19	=19	=19	=19	=19	=19	=19	=19	=19	=19	=19
2AA	.	2cc	1ryy	2AA	1e	2.a	2AA	2e	[2a	2cc
2E	4	2b	.	2E	.	.	2E	2e	(4a]	2b
.	3	.	.	.	.	[4g	.	.	[4g)	.
=20	=20	=20	=20	=20	=20	=20	=20	=20	=20	=20
2F	9	2a	1c	2F	2a	4g]	2F	2c	(4g]	2a
.	8	.	.	.	.	2f	.	.	2f)	.
2C	4	2g	.	2C	2g	.	2C	2c	.	2g
.	3	.	.	.	.	4e	.	.	4e	.
=21	=21	=21	=21	=21	=21	=21	=21	=21	=21	=21
2C#X	6	4a	1A	2C#X	4a	2.e	2C#X	2A	2.e	(4a
.	5	4g	.	.	4g	.	.	.	.	4g)
2D	9	2f	.	2D	2f	.	2D	2A	.	2f
.	8	.	.	.	.	4d	.	.	4d	.
=22	=22	=22	=22	=22	=22	=22	=22	=22	=22	=22
2AA	#	2e	2A	2AA	2e	2c#X	2AA	2A	2c#X	2e
2D	.	2d	2F	2D	2d	2A	2D	2F	2d	2d
=23	=23	=23	=23	=23	=23	=23	=23	=23	=23	=23
*	*	*	*	*	*	*	*^	*	*	*
2AA	6	2f	1ryy	2AA	2A	2cni	2A	2AA	2A	2cni	2f
2GG	6 -	2g	.	2GG	2B-X	[2e	2G	2GG	2B-X	[2e	2g
=24	=24	=24	=24	=24	=24	=24	=24	=24	=24	=24	=24
2FF	7	2a	1ryy	2FF	2A	2e]	2F	2FF	2A	2e]	2a
*	*	*	*	*	*	*	*v	*v	*	*	*
2BB-X	.	2f	.	2BB-X	2B-X	2d	2BB-X	2B-X	2d	2f
=25	=25	=25	=25	=25	=25	=25	=25	=25	=25	=25
2GG	8 6 -	(4g	4ryy	2GG	2B-X	4e	(2GG	(2B-X	(4e	(4g
.	7 5	4f)	4ryy	.	.	2d	.	.	2d	4f
2AA	4	2e	2E	2AA	2e	.	2AA)	2E)	.	2e)
.	#	.	.	.	.	4c#X	.	.	4c#X)	.
=26	=26	=26	=26	=26	=26	=26	=26	=26	=26	=26
2D	.	2d	2F	2D	2d	2A	2D	2F	2d	2d
2C	#4|	2dd	2A	2Cni	2dd	2f#X	2C	2A	2f#X	2dd
=27	=27	=27	=27	=27	=27	=27	=27	=27	=27	=27
2BB	6	2dd	2G	2BB	2dd	2.g	2BB	2G	2g	2dd
2GG	8	2dd	[2B	2GG	2dd	.	2GG	[2B	(4g	2dd
.	7	.	.	.	.	4fni	.	.	4fni)	.
=28	=28	=28	=28	=28	=28	=28	=28	=28	=28	=28
2C	7	2ee	4B]	2C	2ee	2e	2C	(4B]	2e	2ee
.	6	.	4A	.	.	.	.	4A)	.	.
2D	.	2dd	[2A	2D	2dd	2f	2D	[2A	2f	2dd
=29	=29	=29	=29	=29	=29	=29	=29	=29	=29	=29
1E	6 4	(2cc	2A]	1E	2cc	1e	1E	(2A]	(2e	(2cc
.	5 #	2b)	2G#X	.	2b	.	.	2G#X)	2d)	2b)
=30	=30	=30	=30	=30	=30	=30	=30	=30	=30	=30
*	*	*	*	*	*	*^	*	*	*	*
2AA	.	2a	2A	2AA	2a	2c	2e/	2AA	2A	2c	2a
*	*	*	*v	*v	*	*	*	*	*	*	*
*	*	*	*	*v	*v	*v	*	*	*	*
==	==	==	==	==	==	==	==	==
*-	*-	*-	*-	*-	*-	*-	*-	*-
!!!system-decoration: {(s1,s2,s3,s4)}{(s5,s6)}{(s7,s8)}
!!!RDF**kern: i = editorial accidental
!!!RDF**kern: > = above
!!!RDF**kern: < = below
!!!AGN: chorale
!!!EED: Derek Remeš
!!!EED2: Victor Phan
!!!END: 2023/11/28
!!!ENC: Wolfgang Drescher
!!!EEV: 2023/12/08
!!!title: @{ONM}. @{OTL}
!!!verovio: mnumInterval 1